img/element_build_your_bot_logo.svg

<svg width="110" height="124" viewBox="0 0 110 124" fill="none" xmlns="http://www.w3.org/2000/svg">
<path fill-rule="evenodd" clip-rule="evenodd" d="M80.4673 6.04795C91.9746 8.083 99.1204 41.129 100.413 47.6232C106.582 49.3653 110.147 50.7924 109.995 51.6272C109.995 51.6272 109.303 55.2106 109.281 55.3397C108.908 57.4535 84.2953 54.9775 55.0951 49.8079C25.8948 44.6368 2.52777 38.7317 2.89882 36.6163C2.94984 36.3154 3.61619 32.7903 3.61619 32.7903C3.76461 31.9539 7.59882 31.839 13.9886 32.3225C17.4193 26.6663 35.3984 -1.9316 46.8933 0.103451C59.6513 2.36217 62.6166 9.14306 62.6166 9.14306C62.6166 9.14306 67.7139 3.78923 80.4673 6.04795ZM95.4384 60.0107C97.0803 60.1478 98.5861 60.2533 99.9343 60.3226C100.856 64.2588 101.378 68.2911 101.375 72.3361C101.375 100.822 78.707 124 50.7745 124C41.8321 124.008 33.168 121.596 25.4393 117.014C19.8473 121.354 12.4107 123.705 6.22654 123.709V119.342C10.8647 119.336 15.2586 115.105 15.2648 109.884C15.2648 109.73 15.1946 109.576 15.1245 109.423C15.0617 109.285 14.9989 109.147 14.9865 109.01C-2.13451 91.7084 -4.91276 64.4951 8.34154 43.9682C9.6294 44.3556 11.0796 44.7888 12.6751 45.2283C-0.433848 64.2982 2.03829 90.2656 18.5006 106.407L19.0077 106.915L19.1222 107.631C19.2443 108.375 19.3061 109.128 19.3077 109.884C19.3061 112.254 18.7016 114.584 17.5545 116.647C19.7437 115.6 21.7876 114.267 23.6366 112.68L24.8425 111.665L26.1629 112.503C33.5128 117.169 41.9991 119.637 50.657 119.627C76.2302 119.627 97.037 98.4106 97.037 72.3313C97.0385 68.1699 96.502 64.0289 95.4384 60.0107ZM47.4735 59.0468C49.7137 59.0468 51.5303 60.8975 51.5303 63.1815C51.5303 65.4638 49.7137 67.3146 47.4735 67.3146C45.2333 67.3146 43.4167 65.4638 43.4167 63.1815C43.4167 60.8975 45.2333 59.0468 47.4735 59.0468ZM89.1632 63.1815C89.1632 60.8975 87.3466 59.0468 85.1049 59.0468C82.8646 59.0468 81.048 60.8975 81.048 63.1815C81.048 65.4638 82.8646 67.3146 85.1049 67.3146C87.3466 67.3146 89.1632 65.4638 89.1632 63.1815Z" fill="#282A36"/>
</svg>

<svg width="110" height="124" viewBox="0 0 110 124" fill="none" xmlns="http://www.w3.org/2000/svg"><path fill-rule="evenodd" clip-rule="evenodd" d="M80.467 6.048c11.508 2.035 18.653 35.081 19.946 41.575 6.169 1.742 9.734 3.17 9.582 4.004 0 0-.692 3.584-.714 3.713-.373 2.113-24.986-.363-54.186-5.532C25.895 44.637 2.528 38.732 2.9 36.616c.05-.3.717-3.826.717-3.826.149-.836 3.983-.951 10.373-.468C17.42 26.666 35.4-1.932 46.894.103c12.758 2.26 15.724 9.04 15.724 9.04s5.097-5.354 17.85-3.095zm14.971 53.963c1.642.137 3.148.242 4.496.312.922 3.936 1.444 7.968 1.441 12.013 0 28.486-22.668 51.664-50.6 51.664-8.943.008-17.607-2.404-25.336-6.986-5.592 4.34-13.028 6.691-19.212 6.695v-4.367c4.638-.006 9.032-4.237 9.038-9.458 0-.154-.07-.308-.14-.461-.063-.138-.126-.276-.139-.413-17.12-17.302-19.899-44.515-6.644-65.042 1.287.388 2.738.82 4.333 1.26-13.109 19.07-10.637 45.038 5.826 61.179l.507.508.114.716c.122.744.184 1.497.186 2.253-.002 2.37-.606 4.7-1.753 6.763a27.662 27.662 0 006.082-3.967l1.206-1.015 1.32.838a45.585 45.585 0 0024.494 7.124c25.573 0 46.38-21.216 46.38-47.296a48.077 48.077 0 00-1.599-12.32zm-47.965-.964c2.24 0 4.057 1.85 4.057 4.135 0 2.282-1.816 4.133-4.056 4.133s-4.057-1.851-4.057-4.133c0-2.285 1.816-4.135 4.056-4.135zm41.69 4.135c0-2.285-1.816-4.135-4.058-4.135-2.24 0-4.057 1.85-4.057 4.135 0 2.282 1.817 4.133 4.057 4.133 2.242 0 4.058-1.851 4.058-4.133z" fill="#282A36"/></svg>
